findly-builder/apps/searchassist/src/assets/icons/refresh-table.svg

<svg width="16" height="16" viewBox="0 0 16 16" fill="none" xmlns="http://www.w3.org/2000/svg">
<rect width="16" height="16" fill="#D8D8D8" fill-opacity="0.01"/>
<path d="M7.75843 1.11819C7.55458 0.95001 7.2524 0.961325 7.06178 1.15207L7.02814 1.18909C6.85996 1.39294 6.87127 1.69513 7.06202 1.88574L8.02987 2.85299C4.69603 2.87843 2 5.58842 2 8.9264C2 12.2802 4.7216 15 8.07722 15C11.4328 15 14.1544 12.2802 14.1544 8.9264C14.1544 8.63989 13.9222 8.40762 13.6356 8.40762C13.3491 8.40762 13.1169 8.63989 13.1169 8.9264C13.1169 11.707 10.86 13.9624 8.07722 13.9624C5.29448 13.9624 3.03757 11.707 3.03757 8.9264C3.03757 6.16263 5.26727 3.91768 8.02679 3.89063L7.06202 4.85503L7.02836 4.89203C6.86004 5.09578 6.87116 5.39797 7.06178 5.58871C7.26431 5.79138 7.59279 5.79148 7.79545 5.58895L9.64826 3.73735L9.68194 3.70033C9.85032 3.49649 9.8391 3.19414 9.64826 3.00343L7.79545 1.15183L7.75843 1.11819Z" fill="#202124"/>
</svg>

<svg width="16" height="16" fill="none" xmlns="http://www.w3.org/2000/svg"><path fill="#D8D8D8" fill-opacity=".01" d="M0 0h16v16H0z"/><path d="M7.758 1.118a.519.519 0 0 0-.696.034l-.034.037a.519.519 0 0 0 .034.697l.968.967A6.076 6.076 0 0 0 2 8.926 6.076 6.076 0 0 0 8.077 15a6.076 6.076 0 0 0 6.077-6.074.519.519 0 1 0-1.037 0 5.039 5.039 0 0 1-5.04 5.036 5.039 5.039 0 0 1-5.04-5.036 5.039 5.039 0 0 1 4.99-5.035l-.965.964-.034.037a.519.519 0 0 0 .767.697l1.853-1.852.034-.037a.519.519 0 0 0-.034-.697L7.795 1.152l-.037-.034Z" fill="#202124"/></svg>
